X:7108
T:The Morris March (Winster Processional)
O:england
M:4/4
C:
S:West Coast Teams
N:as used on tours
A:Winster
R:Reel
%P:(AB)$^{\infty}$
P:(AB)8
K:G
I:speed 400
%:
P:A
%
|: d2 | g2 d2 d2 ef | g2 d2 d2 ef | g2 d2 de dc | B4 G2    :|\
P:B
B2 | c2 e2 e2 dc | B2 d2 d2 cB | A2 B2 c2 d2 | c4 B2    \
B2 | c2 e2 e2 dc | B2 d2 d2 ef | g2 d2 de dc | B4 G2    ||


